X:89
%%etbk:tnset id:31,pos:2,rep:3x,ant:
%%etbk:wsite http://www.thesession.org/tunes/display/637
%%etbk:video src:ytube,cde:7M5EdNPpXI4,desc:first tune
%%etbk:pldat 2014-12-07T13:04
T: Roscommon
Z: Piano Box Version by Martin Fleischmann
H: Created 2013-02-19 /  Last Modified 2013-02-19
M: 4/4
L: 1/8
R: reel
K: Edor
|: "em"!1!EFGA !5!BAGB | "D"!4!A!2!FFF !5!d!2!F!4!A!2!F | "em"!1!EFG!4!A !2!BBB!4!d | "bm"!1!A!3!F!1!DE "em"!3!F!1!EE2 :|
| "em"!5!e!1!B!2!B!1!B !2!efge | "D"!3!f!1!d!5!ad !5!bd!5!ad | "em"!2!e!1!B !3!(3B!2!B!1!B !2!efge | "bm"!3!fedf "em"!2!e2ed |
"em"!2!e!1!B!2!B!1!B !2!efge | "D"!3!f!1!d!5!ad !5!bd!5!ad | !3!fagf !2!egfe | !1!d!2!B!1!A!2!F !1!EFG!4!A |
|: "em"!2!B2BA !2!BB!4!dB | "D"!1!A2!2!FF !5!dF!4!AF | "em"!1!E!2!BBA B2!4!dB | "bm"!1!A!3!F!1!DE "em"!3!F!1!EE2 :|


